packages/match-logos/mono/svg/mason.svg

<svg fill="none" height="47" viewBox="0 0 136 47" width="136" xmlns="http://www.w3.org/2000/svg"><path clip-rule="evenodd" d="m4.59743 42.3712h126.80557v-37.73958h-126.80557zm-4.59743 4.6288h136v-47h-136zm101.856-32.8487h4.88l7.775 10.0608v-10.0608h5.177v19.0165h-4.591l-8.064-10.434v10.434h-5.177zm-8.0726 9.5623v-.0541c0-2.7459-1.9792-5.1272-4.8519-5.1272-2.8726 0-4.7755 2.3357-4.7755 5.0817v.0541c0 2.7431 1.9792 5.1272 4.8293 5.1272s4.8038-2.3386 4.8038-5.0817zm-14.9854 0v-.0541c0-5.4605 4.3684-9.8899 10.1929-9.8899 5.8246 0 10.1364 4.3753 10.1364 9.8358v.0541c0 5.4606-4.3684 9.8871-10.1788 9.8871s-10.1505-4.3724-10.1505-9.833zm-18.3671 6.6285 2.9038-3.5037c1.8605 1.4926 3.9387 2.2788 6.1214 2.2788 1.4138 0 2.1574-.4899 2.1574-1.3046v-.0541c0-.789-.6193-1.222-3.1809-1.8202-4.0178-.9258-7.1195-2.0652-7.1195-5.9818v-.0456c0-3.5321 2.7766-6.0872 7.3089-6.0872 3.2092 0 5.7143.8716 7.7642 2.5266l-2.6154 3.723c-1.7247-1.222-3.6135-1.8743-5.2845-1.8743-1.2695 0-1.8887.544-1.8887 1.222v.0541c0 .8545.6475 1.2505 3.2628 1.8487 4.3515.9485 7.046 2.3614 7.046 5.9191v.057c0 3.8825-3.0451 6.1926-7.6341 6.1926-3.3392 0-6.5229-1.0596-8.8414-3.1504zm-8.6265-4.6744-2.1064-5.4121-2.1291 5.4121zm-4.5861-11.6531h5.0413l8.0384 19.1532h-5.6124l-1.377-3.3954h-7.2778l-1.3572 3.3954h-5.4937zm-29.937.1367h5.5277l4.5041 7.3604 4.5013-7.3604h5.5276v19.0165h-5.2024v-10.9211l-4.8265 7.4431h-.1074l-4.8067-7.389v10.867h-5.1177z" fill="#1f304c" fill-rule="evenodd"/></svg>

<svg width="136" height="47" viewBox="0 0 136 47" fill="none" xmlns="http://www.w3.org/2000/svg">
<path fill-rule="evenodd" clip-rule="evenodd" d="M4.59743 42.3712H131.403V4.63162H4.59743V42.3712ZM0 47H136V0H0V47ZM101.856 14.1513H106.736L114.511 24.2121V14.1513H119.688V33.1678H115.097L107.033 22.7338V33.1678H101.856V14.1513ZM93.7834 23.7136V23.6595C93.7834 20.9136 91.8042 18.5323 88.9315 18.5323C86.0589 18.5323 84.156 20.868 84.156 23.614V23.6681C84.156 26.4112 86.1352 28.7953 88.9853 28.7953C91.8354 28.7953 93.7891 26.4567 93.7891 23.7136H93.7834ZM78.798 23.7136V23.6595C78.798 18.199 83.1664 13.7696 88.9909 13.7696C94.8155 13.7696 99.1273 18.1449 99.1273 23.6054V23.6595C99.1273 29.1201 94.7589 33.5466 88.9485 33.5466C83.1381 33.5466 78.798 29.1742 78.798 23.7136ZM60.4309 30.3421L63.3347 26.8384C65.1952 28.331 67.2734 29.1172 69.4561 29.1172C70.8699 29.1172 71.6135 28.6273 71.6135 27.8126V27.7585C71.6135 26.9695 70.9942 26.5365 68.4326 25.9383C64.4148 25.0125 61.3131 23.8731 61.3131 19.9565V19.9109C61.3131 16.3788 64.0897 13.8237 68.622 13.8237C71.8312 13.8237 74.3363 14.6953 76.3862 16.3503L73.7708 20.0733C72.0461 18.8513 70.1573 18.199 68.4863 18.199C67.2168 18.199 66.5976 18.743 66.5976 19.421V19.4751C66.5976 20.3296 67.2451 20.7256 69.8604 21.3238C74.2119 22.2723 76.9064 23.6852 76.9064 27.2429V27.2999C76.9064 31.1824 73.8613 33.4925 69.2723 33.4925C65.9331 33.4925 62.7494 32.4329 60.4309 30.3421ZM51.8044 25.6677L49.698 20.2556L47.5689 25.6677H51.8044ZM47.2183 14.0146H52.2596L60.298 33.1678H54.6856L53.3086 29.7724H46.0308L44.6736 33.1678H39.1799L47.2183 14.0146ZM17.2813 14.1513H22.809L27.3131 21.5117L31.8144 14.1513H37.342V33.1678H32.1396V22.2467L27.3131 29.6898H27.2057L22.399 22.3008V33.1678H17.2813V14.1513Z" fill="#1F304C"/>
</svg>
